svg/fluentui-system-icons/ic_fluent_autocorrect_20_filled.svg

<svg width="20" height="20" viewBox="0 0 20 20" fill="none" xmlns="http://www.w3.org/2000/svg">
<path d="M2.16746 14.7525L8.03384 4.15992C8.89035 2.61336 11.1139 2.61336 11.9704 4.15991L14.0973 8.00016H17.25C17.6642 8.00016 18 8.33595 18 8.75016C18 9.16438 17.6642 9.50016 17.25 9.50016H14.9905C15.6202 10.2414 16 11.2014 16 12.2502C16 14.5974 14.0972 16.5002 11.75 16.5002C9.40281 16.5002 7.50002 14.5974 7.50002 12.2502C7.50002 9.90295 9.40281 8.00016 11.75 8.00016C11.8688 8.00016 11.9865 8.00504 12.1028 8.0146C12.1504 8.00513 12.1996 8.00016 12.25 8.00016H12.2799L10.4371 4.7533C10.2454 4.4157 9.75898 4.4157 9.56737 4.7533L3.47584 15.4861L3.40624 15.6118C3.20556 15.9742 2.74913 16.1052 2.38678 15.9045C2.13358 15.7643 1.99332 15.4992 2.00025 15.2286C2.0028 15.1083 2.03439 14.987 2.09794 14.875L2.16746 14.7525ZM9.00002 12.2502C9.00002 13.7689 10.2312 15.0002 11.75 15.0002C13.2688 15.0002 14.5 13.7689 14.5 12.2502C14.5 10.7314 13.2688 9.50016 11.75 9.50016C10.2312 9.50016 9.00002 10.7314 9.00002 12.2502Z" fill="#212121"/>
</svg>

<svg xmlns="http://www.w3.org/2000/svg" width="20" height="20"><path d="M2.167 14.752 8.034 4.16c.856-1.547 3.08-1.547 3.936 0L14.097 8h3.153a.75.75 0 0 1 0 1.5h-2.26a4.25 4.25 0 1 1-2.888-1.486A.754.754 0 0 1 12.25 8h.03l-1.843-3.247a.5.5 0 0 0-.87 0L3.476 15.486l-.07.126a.75.75 0 1 1-1.308-.737l.07-.123ZM9 12.25a2.75 2.75 0 1 0 5.5 0 2.75 2.75 0 0 0-5.5 0Z"/></svg>
